X:4550
T:Na Logaisean
O:england
N:a Very Old Reel
S:Alexander Mackay, A collection of Reels...
B:NLS Glen.344
N:Mc16 in Gore's Scottish Fiddle Music Index
N:Gore guesses 1802, a note (by Murdoch Henderson?)
N:on the titlepage says there's an 1832 watermark.
M:C|
L:1/8
K:D Minor
A|G/G/G c2 AFFA|BGGA cAFA| G/G/G c2 AFFA| BAGA  FDD:|
e|fedf     cdcA|fede fgag|(fe)df    cdcA| BAGA  FDDe|
fedf     cdcA|fede fgag| fadf     cfAc|(BA)GA FDD|]


